!!!OTL: 63m. Schumann, Album for the Young, op. 68 no. 11 ("Sicilienne"), mm. 1-8
!!!OMD: Schalkhaft
**kern	**kern	**dynam
*staff2	*staff1	*staff1/2
*Ipiano	*Ipiano	*Ipiano
*>[A,A]	*>[A,A]	*>[A,A]
*>norep[A]	*>norep[A]	*>norep[A]
*>A	*>A	*>A
*clefF4	*clefG2	*clefG2
*k[]	*k[]	*k[]
*a:	*a:	*a:
*M6/8	*M6/8	*M6/8
*MM144	*MM144	*MM144
8r	8ee\	p
=1	=1	=1
4B\ 4d\	4g#/	.
8B\ 8d\	8g#/	.
4.B\ 4.d\	(8g#'/L	.
.	8a'/	.
.	8b'/J)	.
=2	=2	=2
4c\ 4e\	4a/	.
8c\ 8e\	8a/	.
4.c\ 4.e\	4a/	.
.	(8ee\	.
=3	=3	=3
4B\ 4d\	4g#/)	.
8B\ 8d\	8g#/	.
4.B\ 4.d\	(8g#'/L	.
.	8a'/	.
.	8b'/J)	.
=4	=4	=4
[4.c\ [4.e\	[4.a/	.
4c\] 4e\]	4a/]	.
8B\ (8d\	(8gn/	.
=5	=5	=5
4A#\ 4c#\)	4f#/)	.
8A#\ 8c#\	8f#/	.
4.A#\ 4.c#\	8f#/L	<
.	8a#/	.
.	8cc#/J	.
=6	=6	=6
4B\ 4d#\	4b\	.
8B\ 8d#\	8b\	.
4B\ 4d#\	4b\	.
8B\	8an/	f
=7	=7	=7
(4e\	8g/L	.
.	8f#/	.
8G\)	8e/J	.
4B\	4b\	.
8BB/	8B/	.
=8	=8	=8
[4.E\	[4.e/	.
4E\]	4e/]	.
==:|!	==:|!	==:|!
*-	*-	*-
!!!hum2abc: -q
